X:3260
T:Come West Along the Road
M:C|
L:1/8
Q:240
R:reel
K:G
d2 BG dGBG | GABd efge | d2 BG dGBG |1 ABcd edBc :|2 ABcd ed (3Bcd ||
g2 bg egdg | egdg ed (3Bcd | g2 bg egdB | ABcd ed (3Bcd |
g2 bg egdg | egdg ed (3Bcd | gabg efge | dega bage ||


